_site/assets/images/icons/down.svg

<svg baseProfile="full" xmlns="http://www.w3.org/2000/svg" height="46.9" width="46.9"><path opacity=".502" fill="#DDD" d="M22.5 45C10.072 45 0 34.928 0 22.5S10.072 0 22.5 0 45 10.072 45 22.5 34.928 45 22.5 45zm0-43.2c-11.413 0-20.7 9.286-20.7 20.7s9.287 20.7 20.7 20.7c11.414 0 20.7-9.286 20.7-20.7S33.914 1.8 22.5 1.8zm-9.148 23.59l1.273-1.273 6.975 6.975V10.9h1.8v20.192l6.975-6.975 1.273 1.272-9.148 9.147-9.148-9.148z"/></svg>

<?xml version="1.0" encoding="utf-8"?><!DOCTYPE svg PUBLIC "-//W3C//DTD SVG 1.1//EN" "http://www.w3.org/Graphics/SVG/1.1/DTD/svg11.dtd"><svg version="1.1" baseProfile="full" xmlns="http://www.w3.org/2000/svg" xmlns:xlink="http://www.w3.org/1999/xlink" xmlns:ev="http://www.w3.org/2001/xml-events" height="46.9px" width="46.9px" ><path opacity="0.502" fill="rgb( 221, 221, 221 )" d="M22.5,45 C10.072,45 0,34.928 0,22.5 C0,10.072 10.072,0 22.5,0 C34.928,0 45,10.072 45,22.5 C45,34.928 34.928,45 22.5,45 ZM22.5,1.79999999999995 C11.087,1.79999999999995 1.79999999999995,11.086 1.79999999999995,22.5 C1.79999999999995,33.914 11.087,43.2 22.5,43.2 C33.914,43.2 43.2,33.914 43.2,22.5 C43.2,11.086 33.914,1.79999999999995 22.5,1.79999999999995 ZM13.352,25.389 C13.352,25.389 14.625,24.117 14.625,24.117 C14.625,24.117 21.6,31.092 21.6,31.092 C21.6,31.092 21.6,10.9 21.6,10.9 C21.6,10.9 23.4,10.9 23.4,10.9 C23.4,10.9 23.4,31.092 23.4,31.092 C23.4,31.092 30.375,24.117 30.375,24.117 C30.375,24.117 31.648,25.389 31.648,25.389 C31.648,25.389 22.5,34.537 22.5,34.537 C22.5,34.537 13.352,25.389 13.352,25.389 Z "/></svg>
